**kern	**kern	**fb
*part1	*part1	*part1
*staff2	*staff1	*
*I"Piano	*	*
*clefF4	*clefG2	*
*k[f#c#]	*k[f#c#]	*
=1	=1	=1
2.C#	(4b	7
.	4a)	6
.	4g	5 3
=	=	=
4D	[4f#	5
4G	12f#L]	6
.	12e	.
.	12f#J	.
4B	12gL	6 4
.	12f#	.
.	12eJ	.
=	=	=
.	4qqd/	5 3
2A	2c#t	.
4AA	4r	.
=	=	=
8dL	8f#L	.
8A	8d	.
8F#	8d	.
8AJ	8f#J	.
4D	4a	.
=	=	=
4G	4b	6
2B	8r	.
.	8g	.
.	8f#L	.
.	8eJ	.
=	=	=
4F#	4dd	6_
2D	8r	.
.	(8a	.
.	8gL	.
.	8f#J)	.
=	=	=
4G	(8bL	6 3
.	8gJ	.
4A	4f#)	6 4
4AA	4eT	5 3
=	=	=
*-	*-	*-
!!!system-decoration: {(s1,s2)}
